X: 10
T: A Fig For A Kiss
Z: G.Ryckeboer
S: https://thesession.org/tunes/750#setting29347
R: slip jig
M: 9/8
L: 1/8
K: Edor
|:.E2B BGE BGE|FAD AFd AFD|EFG AB=c BAG|1 BeB AGF E2D:|2 BeB AGF E2B||
|:eBe geg bge|dAd fdf afd|1 eBe geg bge|gfe Be^d e2B:|2 e/2f/2gf ed=c BAG|BeB AGF E3 |]
